public/images/logos/logo-dark.svg

<svg width="178" height="40" viewBox="0 0 178 40" fill="none" xmlns="http://www.w3.org/2000/svg">
<path d="M17.8471 28.9577C15.7965 30.2286 14.2135 29.5576 12.8653 27.789C12.5542 27.3809 12.1412 27.0506 11.7751 26.6845C9.95239 24.8617 9.89913 24.5762 11.0134 22.15C12.7706 18.6462 14.4657 15.2629 16.1608 11.8796C17.861 9.40739 19.7409 7.11929 22.4024 5.59556C26.247 3.39449 30.3648 2.93128 34.665 3.64083C35.6152 3.79762 36.2314 4.41633 36.3799 5.36566C37.5405 12.7867 35.2395 19.3535 28.2271 23.714C27.4225 24.1817 26.7573 24.6279 26.0452 24.9788C23.3207 26.3217 20.5811 27.634 17.8471 28.9577ZM26.2063 10.1781C25.502 11.539 25.6293 12.7525 26.5646 13.5917C27.4591 14.3944 28.8623 14.4776 29.8351 13.7857C31.0445 12.9256 31.2952 11.2585 30.3881 10.1087C29.3593 8.80478 27.6687 8.78103 26.2063 10.1781Z" fill="#0085DB"/>
<path fill-rule="evenodd" clip-rule="evenodd" d="M11.0166 22.0725C12.7708 18.6464 14.4659 15.2631 16.0646 11.8721C15.4544 11.8694 14.8567 11.8715 14.267 11.8735C13.2217 11.8772 12.2016 11.8808 11.1821 11.8572C9.30521 11.8136 7.89865 12.6136 6.92814 14.1715C5.81085 15.965 4.71679 17.7746 3.6711 19.6105C2.87624 21.0061 3.53106 22.0951 5.13073 22.1102C7.07283 22.1286 9.01523 22.115 11.0166 22.0725ZM24.0507 25.9577C21.986 26.9683 19.9165 27.9813 17.8543 29.0582C17.8573 29.7524 17.856 30.4343 17.8546 31.1082C17.8522 32.3502 17.8497 33.5649 17.8752 34.7789C17.9095 36.4175 19.1272 37.2053 20.4429 36.4335C22.2659 35.3639 24.0727 34.2626 25.8419 33.1067C27.1371 32.2605 28.0554 31.1078 28.1087 29.4659C28.1705 27.5631 28.2063 25.6595 28.1814 23.7678C27.8657 23.9401 27.5662 24.1179 27.2728 24.2922C26.861 24.5367 26.4612 24.7741 26.0454 24.979C25.3813 25.3064 24.7162 25.6319 24.0507 25.9577Z" fill="#5AC8FA"/>
<path d="M55.403 28.33C54.2443 28.33 53.1993 28.1283 52.268 27.725C51.344 27.3217 50.5813 26.746 49.98 25.998C49.386 25.2427 49.0083 24.348 48.847 23.314L51.597 22.896C51.8317 23.8347 52.312 24.5607 53.038 25.074C53.7713 25.5873 54.6147 25.844 55.568 25.844C56.1327 25.844 56.6643 25.756 57.163 25.58C57.6617 25.404 58.065 25.1473 58.373 24.81C58.6883 24.4727 58.846 24.0583 58.846 23.567C58.846 23.347 58.8093 23.1453 58.736 22.962C58.6627 22.7713 58.5527 22.6027 58.406 22.456C58.2667 22.3093 58.0833 22.1773 57.856 22.06C57.636 21.9353 57.3793 21.829 57.086 21.741L52.994 20.531C52.642 20.4283 52.2607 20.2927 51.85 20.124C51.4467 19.948 51.0617 19.7097 50.695 19.409C50.3357 19.101 50.0387 18.7123 49.804 18.243C49.5767 17.7663 49.463 17.1797 49.463 16.483C49.463 15.4637 49.7197 14.6093 50.233 13.92C50.7537 13.2233 51.4503 12.7027 52.323 12.358C53.203 12.0133 54.1783 11.8447 55.249 11.852C56.3343 11.8593 57.3023 12.0463 58.153 12.413C59.0037 12.7723 59.715 13.2967 60.287 13.986C60.859 14.6753 61.2623 15.5077 61.497 16.483L58.648 16.978C58.5307 16.4207 58.3033 15.9477 57.966 15.559C57.636 15.163 57.229 14.8623 56.745 14.657C56.2683 14.4517 55.7587 14.3417 55.216 14.327C54.688 14.3197 54.1967 14.4003 53.742 14.569C53.2947 14.7303 52.9317 14.965 52.653 15.273C52.3817 15.581 52.246 15.9403 52.246 16.351C52.246 16.7397 52.3633 17.0587 52.598 17.308C52.8327 17.55 53.1223 17.7443 53.467 17.891C53.819 18.0303 54.1747 18.1477 54.534 18.243L57.372 19.035C57.7607 19.1377 58.197 19.277 58.681 19.453C59.165 19.629 59.6307 19.8747 60.078 20.19C60.5253 20.5053 60.892 20.9197 61.178 21.433C61.4713 21.9463 61.618 22.599 61.618 23.391C61.618 24.2123 61.4457 24.9347 61.101 25.558C60.7637 26.174 60.3053 26.6873 59.726 27.098C59.1467 27.5087 58.483 27.8167 57.735 28.022C56.9943 28.2273 56.217 28.33 55.403 28.33ZM69.488 28.33C68.3293 28.33 67.3577 28.055 66.573 27.505C65.7883 26.955 65.198 26.207 64.802 25.261C64.406 24.3077 64.208 23.2407 64.208 22.06C64.208 20.8647 64.406 19.794 64.802 18.848C65.198 17.902 65.7773 17.1577 66.54 16.615C67.31 16.065 68.2597 15.79 69.389 15.79C70.511 15.79 71.4827 16.065 72.304 16.615C73.1327 17.1577 73.7743 17.902 74.229 18.848C74.6837 19.7867 74.911 20.8573 74.911 22.06C74.911 23.248 74.6873 24.315 74.24 25.261C73.7927 26.207 73.162 26.955 72.348 27.505C71.534 28.055 70.5807 28.33 69.488 28.33ZM63.757 33.28V16.12H66.1V24.458H66.43V33.28H63.757ZM69.081 25.954C69.7703 25.954 70.3387 25.7817 70.786 25.437C71.2333 25.0923 71.5633 24.6267 71.776 24.04C71.996 23.446 72.106 22.786 72.106 22.06C72.106 21.3413 71.996 20.6887 71.776 20.102C71.556 19.508 71.215 19.0387 70.753 18.694C70.291 18.342 69.7043 18.166 68.993 18.166C68.3183 18.166 67.7683 18.331 67.343 18.661C66.9177 18.9837 66.6023 19.4383 66.397 20.025C66.199 20.6043 66.1 21.2827 66.1 22.06C66.1 22.83 66.199 23.5083 66.397 24.095C66.6023 24.6817 66.9213 25.14 67.354 25.47C67.794 25.7927 68.3697 25.954 69.081 25.954ZM77.3356 14.316V11.885H79.9866V14.316H77.3356ZM77.3356 28V16.12H79.9866V28H77.3356ZM83.0396 28L83.0616 12.16H85.7456V21.84L90.0906 16.12H93.4016L88.7926 22.06L93.7976 28H90.2886L85.7456 22.28V28H83.0396ZM99.8657 28.33C98.663 28.33 97.607 28.0697 96.6977 27.549C95.7884 27.0283 95.077 26.306 94.5637 25.382C94.0577 24.458 93.8047 23.3947 93.8047 22.192C93.8047 20.894 94.054 19.7683 94.5527 18.815C95.0514 17.8543 95.7444 17.11 96.6317 16.582C97.519 16.054 98.5457 15.79 99.7117 15.79C100.944 15.79 101.989 16.0797 102.847 16.659C103.712 17.231 104.354 18.0413 104.772 19.09C105.19 20.1387 105.347 21.3743 105.245 22.797H102.616V21.829C102.608 20.5383 102.381 19.596 101.934 19.002C101.486 18.408 100.782 18.111 99.8217 18.111C98.7364 18.111 97.9297 18.4483 97.4017 19.123C96.8737 19.7903 96.6097 20.7693 96.6097 22.06C96.6097 23.2627 96.8737 24.194 97.4017 24.854C97.9297 25.514 98.6997 25.844 99.7117 25.844C100.364 25.844 100.925 25.701 101.395 25.415C101.871 25.1217 102.238 24.7 102.495 24.15L105.113 24.942C104.658 26.0127 103.954 26.845 103.001 27.439C102.055 28.033 101.01 28.33 99.8657 28.33ZM95.7737 22.797V20.795H103.947V22.797H95.7737ZM110.563 28L115.557 12.16H119.44L124.434 28H121.706L117.174 13.788H117.768L113.291 28H110.563ZM113.346 24.568V22.093H121.662V24.568H113.346ZM130.966 28.33C129.873 28.33 128.92 28.055 128.106 27.505C127.292 26.955 126.661 26.207 126.214 25.261C125.767 24.315 125.543 23.248 125.543 22.06C125.543 20.8573 125.767 19.7867 126.214 18.848C126.669 17.902 127.31 17.1577 128.139 16.615C128.968 16.065 129.943 15.79 131.065 15.79C132.194 15.79 133.14 16.065 133.903 16.615C134.673 17.1577 135.256 17.902 135.652 18.848C136.048 19.794 136.246 20.8647 136.246 22.06C136.246 23.2407 136.048 24.3077 135.652 25.261C135.256 26.207 134.666 26.955 133.881 27.505C133.096 28.055 132.125 28.33 130.966 28.33ZM131.373 25.954C132.084 25.954 132.656 25.7927 133.089 25.47C133.529 25.14 133.848 24.6817 134.046 24.095C134.251 23.5083 134.354 22.83 134.354 22.06C134.354 21.2827 134.251 20.6043 134.046 20.025C133.848 19.4383 133.536 18.9837 133.111 18.661C132.686 18.331 132.136 18.166 131.461 18.166C130.75 18.166 130.163 18.342 129.701 18.694C129.239 19.0387 128.898 19.508 128.678 20.102C128.458 20.6887 128.348 21.3413 128.348 22.06C128.348 22.786 128.454 23.446 128.667 24.04C128.887 24.6267 129.221 25.0923 129.668 25.437C130.115 25.7817 130.684 25.954 131.373 25.954ZM134.354 28V19.662H134.024V12.16H136.697V28H134.354ZM153.828 28V20.784C153.828 19.97 153.627 19.3357 153.223 18.881C152.82 18.419 152.274 18.188 151.584 18.188C151.159 18.188 150.778 18.287 150.44 18.485C150.103 18.6757 149.835 18.9617 149.637 19.343C149.439 19.717 149.34 20.1643 149.34 20.685L148.163 19.992C148.156 19.1707 148.339 18.4483 148.713 17.825C149.095 17.1943 149.608 16.703 150.253 16.351C150.899 15.999 151.617 15.823 152.409 15.823C153.722 15.823 154.727 16.219 155.423 17.011C156.127 17.7957 156.479 18.8297 156.479 20.113V28H153.828ZM139.539 28V16.12H141.882V19.805H142.212V28H139.539ZM146.7 28V20.817C146.7 19.9883 146.499 19.343 146.095 18.881C145.692 18.419 145.142 18.188 144.445 18.188C143.771 18.188 143.228 18.419 142.817 18.881C142.414 19.343 142.212 19.9443 142.212 20.685L141.024 19.893C141.024 19.123 141.215 18.43 141.596 17.814C141.978 17.198 142.491 16.714 143.136 16.362C143.789 16.0027 144.519 15.823 145.325 15.823C146.213 15.823 146.953 16.0137 147.547 16.395C148.149 16.769 148.596 17.2823 148.889 17.935C149.19 18.5803 149.34 19.31 149.34 20.124V28H146.7ZM159.348 14.316V11.885H161.999V14.316H159.348ZM159.348 28V16.12H161.999V28H159.348ZM173.291 28V22.28C173.291 21.906 173.266 21.4917 173.214 21.037C173.163 20.5823 173.042 20.146 172.851 19.728C172.668 19.3027 172.389 18.9543 172.015 18.683C171.649 18.4117 171.15 18.276 170.519 18.276C170.182 18.276 169.848 18.331 169.518 18.441C169.188 18.551 168.888 18.7417 168.616 19.013C168.352 19.277 168.14 19.6437 167.978 20.113C167.817 20.575 167.736 21.169 167.736 21.895L166.163 21.224C166.163 20.212 166.358 19.2953 166.746 18.474C167.142 17.6527 167.722 17 168.484 16.516C169.247 16.0247 170.186 15.779 171.3 15.779C172.18 15.779 172.906 15.9257 173.478 16.219C174.05 16.5123 174.505 16.8863 174.842 17.341C175.18 17.7957 175.429 18.2797 175.59 18.793C175.752 19.3063 175.854 19.794 175.898 20.256C175.95 20.7107 175.975 21.081 175.975 21.367V28H173.291ZM165.052 28V16.12H167.417V19.805H167.736V28H165.052Z" fill="#111C2D"/>
</svg>

<svg xmlns="http://www.w3.org/2000/svg" width="178" height="40" fill="none" viewBox="0 0 178 40"><path fill="#0085DB" d="M17.847 28.958c-2.05 1.27-3.634.6-4.982-1.169-.31-.408-.724-.738-1.09-1.105-1.823-1.822-1.876-2.108-.762-4.534 1.758-3.504 3.453-6.887 5.148-10.27 1.7-2.473 3.58-4.76 6.241-6.284 3.845-2.202 7.963-2.665 12.263-1.955.95.157 1.566.775 1.715 1.725 1.16 7.42-1.14 13.988-8.153 18.348-.805.468-1.47.914-2.182 1.265-2.724 1.343-5.464 2.655-8.198 3.979m8.36-18.78c-.705 1.361-.578 2.574.358 3.414.894.802 2.297.886 3.27.194 1.21-.86 1.46-2.527.553-3.677-1.029-1.304-2.72-1.328-4.182.07"/><path fill="#5AC8FA" fill-rule="evenodd" d="M11.017 22.073c1.754-3.427 3.449-6.81 5.048-10.2q-.914-.005-1.798 0c-1.045.004-2.065.008-3.085-.016-1.877-.043-3.283.757-4.254 2.315a161 161 0 0 0-3.257 5.438c-.795 1.396-.14 2.485 1.46 2.5 1.942.019 3.884.005 5.886-.037m13.034 3.885c-2.065 1.01-4.134 2.023-6.197 3.1q.004 1.04 0 2.05c-.002 1.242-.004 2.457.021 3.67.035 1.64 1.252 2.427 2.568 1.656a132 132 0 0 0 5.399-3.327c1.295-.846 2.213-2 2.267-3.641.061-1.903.097-3.806.072-5.698-.315.172-.615.35-.908.524a18 18 0 0 1-1.228.687z" clip-rule="evenodd"/><path fill="#111C2D" d="M55.403 28.33q-1.739 0-3.135-.605a5.9 5.9 0 0 1-2.288-1.727q-.891-1.133-1.133-2.684l2.75-.418q.352 1.408 1.441 2.178 1.1.77 2.53.77.847 0 1.595-.264t1.21-.77q.473-.506.473-1.243 0-.33-.11-.605a1.4 1.4 0 0 0-.33-.506 2 2 0 0 0-.55-.396 3.7 3.7 0 0 0-.77-.319l-4.092-1.21a12 12 0 0 1-1.144-.407 5 5 0 0 1-1.155-.715 3.7 3.7 0 0 1-.891-1.166q-.34-.715-.341-1.76 0-1.53.77-2.563.78-1.045 2.09-1.562 1.32-.517 2.926-.506 1.628.01 2.904.561 1.276.54 2.134 1.573.858 1.035 1.21 2.497l-2.849.495a3.1 3.1 0 0 0-.682-1.419 3.2 3.2 0 0 0-1.221-.902 4.1 4.1 0 0 0-3.003-.088q-.67.242-1.089.704a1.58 1.58 0 0 0-.407 1.078q0 .584.352.957.352.363.869.583.528.21 1.067.352l2.838.792q.583.154 1.309.418t1.397.737 1.1 1.243q.44.77.44 1.958 0 1.232-.517 2.167a4.54 4.54 0 0 1-1.375 1.54q-.87.616-1.991.924a8.7 8.7 0 0 1-2.332.308m14.085 0q-1.738 0-2.915-.825t-1.771-2.244q-.594-1.43-.594-3.201 0-1.793.594-3.212t1.738-2.233q1.155-.825 2.849-.825 1.683 0 2.915.825 1.243.814 1.925 2.233.682 1.409.682 3.212 0 1.782-.671 3.201-.67 1.419-1.892 2.244-1.22.825-2.86.825m-5.731 4.95V16.12H66.1v8.338h.33v8.822zm5.324-7.326q1.035 0 1.705-.517t.99-1.397q.33-.891.33-1.98 0-1.078-.33-1.958-.33-.89-1.023-1.408-.693-.528-1.76-.528-1.012 0-1.65.495-.637.484-.946 1.364-.297.87-.297 2.035 0 1.155.297 2.035.308.88.957 1.375.66.484 1.727.484m8.255-11.638v-2.431h2.65v2.431zm0 13.684V16.12h2.65V28zm5.704 0 .022-15.84h2.684v9.68l4.345-5.72h3.31l-4.608 5.94L93.798 28h-3.51l-4.542-5.72V28zm16.826.33q-1.804 0-3.168-.781a5.56 5.56 0 0 1-2.134-2.167q-.76-1.386-.76-3.19 0-1.947.749-3.377.747-1.44 2.079-2.233 1.33-.792 3.08-.792 1.848 0 3.135.869 1.298.858 1.925 2.431t.473 3.707h-2.629v-.968q-.012-1.936-.682-2.827-.672-.891-2.112-.891-1.629 0-2.42 1.012-.792 1-.792 2.937 0 1.804.792 2.794t2.31.99q.978 0 1.683-.429.714-.44 1.1-1.265l2.618.792q-.683 1.605-2.112 2.497a5.8 5.8 0 0 1-3.135.891m-4.092-5.533v-2.002h8.173v2.002zM110.563 28l4.994-15.84h3.883L124.434 28h-2.728l-4.532-14.212h.594L113.291 28zm2.783-3.432v-2.475h8.316v2.475zm17.62 3.762q-1.64 0-2.86-.825-1.221-.825-1.892-2.244t-.671-3.201q0-1.804.671-3.212.682-1.419 1.925-2.233 1.243-.825 2.926-.825 1.693 0 2.838.825 1.155.814 1.749 2.233t.594 3.212q0 1.77-.594 3.201-.594 1.419-1.771 2.244t-2.915.825m.407-2.376q1.067 0 1.716-.484.66-.495.957-1.375.308-.88.308-2.035 0-1.166-.308-2.035-.297-.88-.935-1.364-.637-.495-1.65-.495-1.067 0-1.76.528-.693.517-1.023 1.408-.33.88-.33 1.958 0 1.089.319 1.98.33.88 1.001 1.397t1.705.517M134.354 28v-8.338h-.33V12.16h2.673V28zm19.474 0v-7.216q0-1.22-.605-1.903-.604-.693-1.639-.693a2.2 2.2 0 0 0-1.144.297q-.506.286-.803.858-.297.56-.297 1.342l-1.177-.693q-.01-1.232.55-2.167a4 4 0 0 1 1.54-1.474 4.4 4.4 0 0 1 2.156-.528q1.97 0 3.014 1.188 1.056 1.177 1.056 3.102V28zm-14.289 0V16.12h2.343v3.685h.33V28zm7.161 0v-7.183q0-1.243-.605-1.936t-1.65-.693q-1.011 0-1.628.693-.605.693-.605 1.804l-1.188-.792q0-1.155.572-2.079.573-.924 1.54-1.452.98-.54 2.189-.539 1.332 0 2.222.572a3.4 3.4 0 0 1 1.342 1.54q.451.968.451 2.189V28zm12.648-13.684v-2.431h2.651v2.431zm0 13.684V16.12h2.651V28zm13.943 0v-5.72q0-.56-.077-1.243a4.3 4.3 0 0 0-.363-1.309 2.5 2.5 0 0 0-.836-1.045q-.55-.407-1.496-.407-.506 0-1.001.165t-.902.572q-.395.395-.638 1.1-.242.693-.242 1.782l-1.573-.671q0-1.518.583-2.75a4.7 4.7 0 0 1 1.738-1.958q1.145-.737 2.816-.737 1.32 0 2.178.44t1.364 1.122q.507.682.748 1.452.243.77.308 1.463.077.682.077 1.111V28zm-8.239 0V16.12h2.365v3.685h.319V28z"/></svg>
